assets/build/gfx/icons/github.svg

<svg width="60" height="59" viewBox="0 0 60 59" fill="none" xmlns="http://www.w3.org/2000/svg">
<path d="M30 0C13.4325 0 0 13.4306 0 30C0 43.2544 8.59688 54.5006 20.5163 58.4662C22.0163 58.7437 22.5675 57.8156 22.5675 57.0225C22.5675 56.3081 22.5394 53.9437 22.5262 51.4369C14.1787 53.2519 12.4181 47.8969 12.4181 47.8969C11.0531 44.43 9.08813 43.5075 9.08813 43.5075C6.36563 41.6456 9.29437 41.6831 9.29437 41.6831C12.3056 41.895 13.8919 44.775 13.8919 44.775C16.5675 49.3612 20.91 48.0356 22.6219 47.2687C22.89 45.33 23.6681 44.0062 24.5269 43.2562C17.8631 42.4987 10.8581 39.9244 10.8581 28.4306C10.8581 25.155 12.03 22.4794 13.95 20.3775C13.6388 19.6219 12.6112 16.5712 14.2406 12.4387C14.2406 12.4387 16.7606 11.6325 22.4925 15.5137C24.885 14.8481 27.4519 14.5162 30.0019 14.5031C32.55 14.5144 35.1188 14.8481 37.5169 15.5137C43.2431 11.6325 45.7575 12.4387 45.7575 12.4387C47.3906 16.5712 46.3631 19.6219 46.0519 20.3775C47.9756 22.4775 49.14 25.155 49.14 28.4306C49.14 39.9525 42.1219 42.4894 35.4413 43.2337C36.5175 44.1656 37.4756 45.99 37.4756 48.7894C37.4756 52.8037 37.44 56.0344 37.44 57.0225C37.44 57.8212 37.98 58.7569 39.5006 58.4625C51.4144 54.4912 60 43.2506 60 30C60 13.4306 46.5675 0 30 0V0Z" fill="white"/>
</svg>

<svg width="60" height="59" fill="none" xmlns="http://www.w3.org/2000/svg"><path d="M30 0C13.432 0 0 13.43 0 30c0 13.254 8.597 24.5 20.516 28.466 1.5.278 2.052-.65 2.052-1.444 0-.714-.029-3.078-.042-5.585-8.347 1.815-10.108-3.54-10.108-3.54-1.365-3.467-3.33-4.39-3.33-4.39-2.722-1.861.206-1.824.206-1.824 3.012.212 4.598 3.092 4.598 3.092 2.675 4.586 7.018 3.26 8.73 2.494.268-1.939 1.046-3.263 1.905-4.013-6.664-.757-13.669-3.332-13.669-14.825 0-3.276 1.172-5.952 3.092-8.053-.311-.756-1.339-3.807.29-7.94 0 0 2.52-.806 8.252 3.076 2.393-.666 4.96-.998 7.51-1.01 2.548.01 5.117.344 7.515 1.01 5.726-3.881 8.24-3.075 8.24-3.075 1.634 4.132.606 7.183.295 7.939 1.924 2.1 3.088 4.777 3.088 8.053 0 11.521-7.018 14.058-13.699 14.803 1.076.932 2.035 2.756 2.035 5.555 0 4.015-.036 7.245-.036 8.233 0 .8.54 1.735 2.06 1.44C51.415 54.492 60 43.252 60 30 60 13.43 46.568 0 30 0z" fill="#fff"/></svg>
